X: 2
P: Polska efter Josefs Lars Olsson - N\aaspolska
R: polska-mazurka
M: 3/4
L: 1/8
K: D
|: {A}F>A d2 e>g | f2  B4     | g>f e>d c>e |1,3 d2 A3 G :|2,4 dz d4 :|
|: {A}d>f a2 g>f | e>g b2 a>g | f>a ge  c>e |1,3 dz A3 A :|2,4 dz d2 :|
